source/img/contacts-icon-tablet.svg

<svg width="68" height="68" fill="none" xmlns="http://www.w3.org/2000/svg"><circle cx="34" cy="34" r="34" fill="#121936"/><path fill-rule="evenodd" clip-rule="evenodd" d="M45.5439 41.5047l-6.5438-5.9936 6.5438-5.9936-.8923-.9535-9.5182 8.7179-9.5182-8.7179-.8924.9535 6.5438 5.9936-6.5438 5.9936.8924.9535 6.6181-6.0617 2.9001 2.6563 2.9-2.6563 6.6182 6.0617.8923-.9535zM23.537 26.0667c-1.2225 0-2.2135 1.056-2.2135 2.354v14.1807c0 1.3002.983 2.3541 2.2135 2.3541h23.1927c1.2225 0 2.2135-1.056 2.2135-2.3541V28.4207c0-1.3001-.983-2.354-2.2135-2.354H23.537z" fill="#FFD74B"/></svg>

<svg width="68" height="68" viewBox="0 0 68 68" fill="none" xmlns="http://www.w3.org/2000/svg">
<circle cx="34" cy="34" r="34" fill="#121936"/>
<path fill-rule="evenodd" clip-rule="evenodd" d="M45.5439 41.5047L39.0001 35.5111L45.5439 29.5175L44.6516 28.564L35.1334 37.2819L25.6152 28.564L24.7228 29.5175L31.2666 35.5111L24.7228 41.5047L25.6152 42.4582L32.2333 36.3965L35.1334 39.0528L38.0334 36.3965L44.6516 42.4582L45.5439 41.5047ZM23.537 26.0667C22.3145 26.0667 21.3235 27.1227 21.3235 28.4207V42.6014C21.3235 43.9016 22.3065 44.9555 23.537 44.9555H46.7297C47.9522 44.9555 48.9432 43.8995 48.9432 42.6014V28.4207C48.9432 27.1206 47.9602 26.0667 46.7297 26.0667H23.537Z" fill="#FFD74B"/>
</svg>
